X: 1691
T: Segâh Peşrev
C: Tanburî Cemil Bey
O: Turkey
F: http://compmusic.upf.edu/node/140
N: segah--pesrev--serbest--karabatak--tanburi_cemil_bey
N: makam= segah
N: form= pesrev
N: usul= serbest = 0/1
M: 0/1
L: 1/16
K: C _1/4B _1/4e ^f 
Q: 1/4=72
%%MIDI tuningsystem comma53
g f g a g2 f2 f e f g f2 e2  | d2 e2 d2 z2 e d e f g2 a2  | 
w:   |   | 
g f g a g2 f2 f e f g d6 =e z d z c z B z ^A z B4  | 
w:   | 
=e3/2 d/ e z d z z e2 c z z d2 B z  | \
w:   | 
z c2 ^A4 B c B z c d c z d6 =e2 d2 c2 B2 A2 B3 A2 B2 c2 d c B =A G4  | 
w:   | 
z4 c2 d3 c B2 c2 B4 c4 d6 =e2 d2  | \
w:   | 
z2 =e2 f2 e2 ^d4 c2 d2  | =e2 f2 g a g f/ e2 f2 g2 f4 d d d c B2 c2 B c B2 c d c2 d8 e3/2 d/ e f g2 a2 g f g a g2 f2 f e f g f2 e2 d6 e2 d2 c2 B2 ^A2 B2 B G B2 c2 d2 e2 f2 g2 a2 g2 =f2 e2 d2 e2 d2 c2 B6 c2 B z d2 c d/ z/ c2 B2 A3 G/ z/ d c c B B6 z2 ^f2 g2 f2 ^e2 f2 f e f2 g2 f4 g2 f2 g4 ^a2 g2 a2 b2 c'2 b2 a6 g2 a2 g2 f2 e2 f8 g2 a2 b2 c'2 b4 a4 g4 f4 g4 a4 g2 c'3 b a2 b2 a2 b2 c'2 c'3/2 b b8 c'8 b c' d'4 c'2 d'4 b4 d'2 c' d' c'3/2 b/ a c' b8 B c d4 c2 d4 B4 d2 c d c3/2 B/ A c B8 c'6 c' b b6 b a a12 g2 a g f e f g a b c6 c B B6 ^B =A A6 G2 A G F ^E F4 g3 f  | 
w:   |   | 
^e2 f2 e4 f4 g2 a2  | g2 f2 a2 b2 c'2 b2 a4  | \
w:   |   | 
g2 f2 a2 g2 f2 ^e2 d6 e2 d2 c2 B2 ^A2 B3 A2 B2 c2 d2 e2 f2 g2 a2 g2 =f2 _1/4e2 d2 e2 d2 c2 B4 c2 B2 d2 c d c2 B2 A3  | 
w:   | 
G d c c B B8 f2 g2 f2 ^e2 f4 g2 a2 f2 g  | \
w:   | 
a g2 a2 f8 d2 ^e2 d2 ^c2 d4 c2 d2 B2 c  | 
w:   | 
d ^c2 d2 B8 f2 a6 g2 a4 f4 a2 g a g f ^e g f8 d6 =c2 d4 B4 d2 c d c B ^A c B8 a2 b a2 g4 f4 g8 ^a4 b8  | 
w:   | 
^A2 B4 A2 G4 F4  | G4 ^A4 B8  | f2 g2 f2 ^e2 f2 g2 f2 e2  | \
w:   |   |   | 
f2 g2 ^a2 b2 a2 g2 f2 ^e2  | 
w:   | 
f4 B2 c2 B2 ^A2 B2 c2  | B2 ^A2 B2 c2 d2 e2 d c B A  | \
w:   |   | 
B4 g3 f ^e2 g2 e4  | 
w:   | 
f4 g2 a2 g2 f2 a2 b2  | c'2 b2 a4 g2 f2 a2 g2  | \
w:   |   | 
f2 e2 d6 e2 d2 c2  | B2 ^A2 B2 z G B2 c2 d2 e2  | 
w:   |   | 
f2 g2 a2 g2 f2 e2 d2 e2  | d2 c2 B4 c2 B2 d2 c B  | \
w:   |   | 
c2 B2 ^A3 G d c c B B8 B6 A2 B4  | 
w:   | 
c4 d3 _7/8e e2 d2 d2 d c  | B4 B4 B2 ^A2 B4  | \
w:   |   | 
f4 f2 g2 f2 _7/8e2 d2 d c  | 
w:   | 
B4 z2 B B B2 ^A2 B4  | a4 a2 _b2 a2 g2 g2 a2  | \
w:   |   | 
g2 f2 f2 g2 f2 e2 d4  | 
w:   | 
c2 d3 c4 B2 c2 d8 z2 g2 =f2 e2 d2 e2 d c B4 z4 ^f4 f3/2 e/ f2 d4 f3 e d2 e2 f2 g2 a2 _7/8b2 a2 g4 f3  | 
w:   | 
e d4 d3 c B2 c2 B4 c4 d6 c B B8 d2 f2 _7/8e2 d2 ^c2 d2 e2 f2 d12 a2 a2 _b2 a2 g2 f6 a2 g2 a2 g2 f2 _1/4e6 g2 f2 g2 f2 e2 d12 g2 =f4 =e4 d3 =c d2 _1/4e2 d2 c2 B2 ^A2 B2 G2 B2 c2 d2 e2 ^f2 g2 a2 g2 =f2 e2 d2 e2 d2 c2 B4 c c c B d2 c d c c c  | 
w:   | 
B ^A A A G d c c B B8 |
w:   | 


